X: 5136
T: Bridie's Joy
R: reel
M: 4/4
K: Dmajor
F|D2 F>A d>A F<D|G>B F>A G<E E>F|D2 F>A d/c/B/A/ F>A|
Bc/d/ (3efg f<d d:|a|d2 f<d a>g f<d|g>e g/f/e/d/ c<e e>f|
d2 f<d a>g f<d|Bc/d/ (3efg f<d d>A|d2 f<d a>g f<d|
g>e g/f/e/d/ c<e ed/c/|(3def (3efg (3fga (3gab|(3agf (3gfe d2 d||

